src/assets/icons/filters/categories/ball.svg

<svg width="48" height="48" viewBox="0 0 48 48" fill="none" xmlns="http://www.w3.org/2000/svg">
<path fill-rule="evenodd" clip-rule="evenodd" d="M40.9789 40.9774C50.3404 31.616 50.3404 16.3825 40.9789 7.02106C31.6159 -2.34035 16.3809 -2.34035 7.02106 7.02106C-2.34035 16.3825 -2.34035 31.616 7.02106 40.9774C9.24865 43.2086 11.8952 44.9776 14.8086 46.1827C17.722 47.3879 20.8448 48.0055 23.9976 48C30.1487 48 36.2982 45.6596 40.9789 40.9774V40.9774Z" fill="#CFD8DC"/>
<path fill-rule="evenodd" clip-rule="evenodd" d="M3.00656 23.7704C4.65307 24.311 6.37439 24.5893 8.10738 24.5949C11.9322 24.5949 15.6881 23.2625 18.6978 20.7575L21.9395 24.0008L11.3068 34.6319C11.0435 34.9175 10.9009 35.2938 10.9087 35.6822C10.9165 36.0705 11.0742 36.4408 11.3488 36.7155C11.6233 36.9903 11.9935 37.1482 12.3818 37.1564C12.7701 37.1645 13.1466 37.0221 13.4324 36.7591L24.0651 26.1264L27.3099 29.3696C25.5295 31.5071 24.317 34.0591 23.7847 36.7896C23.2523 39.52 23.4172 42.3405 24.2641 44.9903C24.1748 44.9919 24.0886 45.0044 23.9976 45.0044C21.2387 45.0113 18.5057 44.4711 15.9569 43.415C13.408 42.3589 11.0938 40.8079 9.14823 38.8518C7.19168 36.9061 5.64046 34.5917 4.58436 32.0426C3.52825 29.4934 2.98825 26.7601 2.99559 24.0008C2.99559 23.9224 3.005 23.8472 3.00656 23.7704V23.7704ZM8.16694 10.2283L16.5455 18.6053C14.7073 20.0786 12.5159 21.0458 10.1885 21.411C7.86121 21.7761 5.47886 21.5265 3.27775 20.687C3.88771 16.8089 5.58338 13.1827 8.16851 10.2283H8.16694ZM10.2957 8.10581C13.2596 5.53718 16.8899 3.85956 20.7669 3.26678C21.594 5.4617 21.8357 7.83407 21.4683 10.1507C21.1008 12.4673 20.1368 14.6484 18.6711 16.4797L10.2957 8.10581V8.10581ZM38.8518 9.14666C40.8084 11.0929 42.3597 13.4078 43.4158 15.9575C44.4719 18.5072 45.0118 21.241 45.0044 24.0008C45.0044 24.0588 44.9966 24.1168 44.995 24.1764C42.3523 23.3442 39.5429 23.1889 36.8246 23.7249C34.1063 24.2609 31.5661 25.471 29.4371 27.244L26.1922 23.9992L36.8249 13.3681C37.0882 13.0825 37.2308 12.7062 37.223 12.3178C37.2151 11.9295 37.0574 11.5592 36.7829 11.2845C36.5083 11.0097 36.1382 10.8518 35.7499 10.8437C35.3615 10.8355 34.9851 10.9779 34.6993 11.2409L24.0651 21.8736L20.8218 18.6288C22.6026 16.4903 23.8149 13.937 24.3464 11.2053C24.878 8.47371 24.7117 5.65211 23.8628 3.00186C23.9099 3.00186 23.9538 2.99559 23.9992 2.99559C29.6095 2.99559 34.8843 5.18076 38.8518 9.14666V9.14666ZM39.8942 37.7012L31.5862 29.3932C33.4079 27.9368 35.5754 26.9765 37.8779 26.6054C40.1805 26.2343 42.5399 26.4651 44.727 27.2754C44.1281 31.1359 42.4531 34.7493 39.8942 37.7012V37.7012ZM29.4606 31.5203L37.7717 39.8315C34.8291 42.4062 31.2198 44.0987 27.3585 44.7144C26.5354 42.5217 26.2962 40.1527 26.6644 37.8397C27.0327 35.5267 27.9957 33.3491 29.459 31.5203H29.4606ZM40.9789 40.9774C50.3404 31.616 50.3404 16.3825 40.9789 7.02106C31.6159 -2.34035 16.3809 -2.34035 7.02106 7.02106C-2.34035 16.3825 -2.34035 31.616 7.02106 40.9774C9.24865 43.2086 11.8952 44.9776 14.8086 46.1827C17.722 47.3879 20.8448 48.0055 23.9976 48C30.1487 48 36.2982 45.6596 40.9789 40.9774V40.9774Z" fill="#253238"/>
<path opacity="0.5" fill-rule="evenodd" clip-rule="evenodd" d="M3.00641 23.7704C4.65291 24.311 6.37423 24.5893 8.10722 24.5949C11.932 24.5949 15.6879 23.2625 18.6976 20.7575L21.9393 24.0008L11.3066 34.6319C11.0433 34.9175 10.9007 35.2939 10.9086 35.6822C10.9164 36.0705 11.0741 36.4408 11.3486 36.7155C11.6232 36.9903 11.9933 37.1482 12.3816 37.1564C12.77 37.1645 13.1464 37.0221 13.4322 36.7591L24.0649 26.1264L27.3097 29.3697C25.5294 31.5071 24.3169 34.0592 23.7845 36.7896C23.2521 39.52 23.417 42.3406 24.264 44.9903C24.1746 44.9919 24.0884 45.0044 23.9975 45.0044C21.2385 45.0113 18.5056 44.4711 15.9567 43.415C13.4079 42.3589 11.0937 40.8079 9.14808 38.8518C7.19152 36.9061 5.6403 34.5917 4.5842 32.0426C3.5281 29.4934 2.98809 26.7601 2.99544 24.0008C2.99544 23.9224 3.00484 23.8472 3.00641 23.7704V23.7704ZM38.8516 9.14668C40.8083 11.0929 42.3595 13.4078 43.4156 15.9575C44.4717 18.5072 45.0117 21.241 45.0043 24.0008C45.0043 24.0588 44.9964 24.1168 44.9948 24.1764C42.3521 23.3442 39.5427 23.1889 36.8244 23.7249C34.1061 24.2609 31.5659 25.471 29.4369 27.2441L26.1921 23.9992L36.8248 13.3681C37.088 13.0825 37.2306 12.7062 37.2228 12.3178C37.215 11.9295 37.0573 11.5592 36.7827 11.2845C36.5082 11.0097 36.138 10.8518 35.7497 10.8437C35.3614 10.8355 34.985 10.9779 34.6992 11.2409L24.0649 21.8736L20.8216 18.6288C22.6024 16.4903 23.8147 13.937 24.3463 11.2053C24.8779 8.47372 24.7115 5.65212 23.8627 3.00188C23.9097 3.00188 23.9536 2.99561 23.9991 2.99561C29.6093 2.99561 34.8841 5.18077 38.8516 9.14668Z" fill="white"/>
</svg>

<svg width="48" height="48" viewBox="0 0 48 48" fill="none" xmlns="http://www.w3.org/2000/svg"><path fill-rule="evenodd" clip-rule="evenodd" d="M40.979 40.977c9.361-9.361 9.361-24.594 0-33.956-9.363-9.361-24.598-9.361-33.958 0-9.361 9.361-9.361 24.595 0 33.956A23.929 23.929 0 0023.998 48c6.15 0 12.3-2.34 16.98-7.023z" fill="#CFD8DC"/><path fill-rule="evenodd" clip-rule="evenodd" d="M3.007 23.77c1.646.541 3.367.82 5.1.825 3.825 0 7.581-1.332 10.59-3.837L21.94 24 11.307 34.63a1.505 1.505 0 002.125 2.128l10.633-10.633 3.245 3.244a16.538 16.538 0 00-3.046 15.62c-.09.002-.175.014-.266.014a20.87 20.87 0 01-14.85-6.152A20.867 20.867 0 012.996 24c0-.079.009-.154.01-.23zm5.16-13.542l8.379 8.377a13.514 13.514 0 01-13.268 2.082 20.787 20.787 0 014.89-10.459h-.001zm2.129-2.122a20.785 20.785 0 0110.47-4.84 13.518 13.518 0 01-2.095 13.214l-8.375-8.374zm28.556 1.04a20.873 20.873 0 016.152 14.855c0 .058-.007.116-.009.175a16.545 16.545 0 00-15.558 3.068l-3.245-3.245 10.633-10.63a1.505 1.505 0 00-2.126-2.128L24.065 21.874l-3.243-3.245a16.536 16.536 0 003.04-15.627c.048 0 .092-.006.137-.006 5.61 0 10.885 2.185 14.853 6.15zm1.042 28.555l-8.308-8.308a13.521 13.521 0 0113.141-2.118 20.78 20.78 0 01-4.833 10.426zm-10.433-6.18l8.31 8.31a20.784 20.784 0 01-10.413 4.883A13.516 13.516 0 0129.46 31.52h.002zm11.518 9.456c9.361-9.361 9.361-24.594 0-33.956-9.363-9.361-24.598-9.361-33.958 0-9.361 9.361-9.361 24.595 0 33.956A23.929 23.929 0 0023.998 48c6.15 0 12.3-2.34 16.98-7.023z" fill="#253238"/><path opacity=".5" fill-rule="evenodd" clip-rule="evenodd" d="M3.006 23.77c1.647.541 3.368.82 5.101.825 3.825 0 7.58-1.332 10.59-3.837L21.94 24 11.307 34.63a1.504 1.504 0 002.125 2.128l10.633-10.633 3.245 3.244a16.54 16.54 0 00-3.046 15.62c-.09.002-.176.014-.267.014a20.87 20.87 0 01-14.849-6.152A20.867 20.867 0 012.995 24c0-.079.01-.154.011-.23zM38.852 9.147A20.87 20.87 0 0145.004 24c0 .058-.008.116-.01.175a16.545 16.545 0 00-15.557 3.068L26.192 24l10.633-10.63a1.505 1.505 0 00-2.126-2.128L24.065 21.874l-3.243-3.245a16.537 16.537 0 003.04-15.627c.048 0 .092-.006.137-.006 5.61 0 10.885 2.185 14.853 6.15z" fill="#fff"/></svg>
